X:5395
T:Schottis fr s (Haka p dej Britta ...)
A:Jmtland
C:e. Erik Nilsson
M:4/4
O:Sweden
R:Schottische
R:Polkett
Z:Richard Robinson 
%%TUNEURL: http://www.leeds.ac.uk/music/Info/RRTuneBk/gettune/000008f4.html
%%ID:000008f4
K:G
G>Bdg b2g2 | G>Bdg gff2 |\
f>ece e>dBd |1 d>cAB c2BA :|2 d>cAF G2z2 :|
|:A|\
B2(3BAB c2c2 | cBBA AGGB |1 \
d2 (3dcd e2e2 | d2dB G3A :|2 \
g>ece edBd | d>cAF G3 :|
